X: 1
T: Jackson's Morning Breeze
T:Seamus' Connolly's
M: 6/8
L: 1/8
R: jig
K: Dmaj
DFA def|ecA gab|afd Adf|ecA GFE|
DFA def|ecA gab|afd Adf|1 edc d2z :|2 edc d2e||
fdf afa|bgb a2g|fdf afa|bgb a2f|
gfg fef|edB gab|afd Adf|1 edc d2e :|2 edc d2z||
